dist/img/svg/folder.svg

<svg width="20" height="16" viewBox="0 0 20 16" fill="none" xmlns="http://www.w3.org/2000/svg">
<path d="M14.8984 3.375C15.8828 3.375 16.6484 4.16797 16.6484 5.125V12.125C16.6484 13.1094 15.8555 13.875 14.8984 13.875H4.39844C3.41406 13.875 2.64844 13.1094 2.64844 12.125V3.375C2.64844 2.41797 3.41406 1.625 4.39844 1.625H7.625C8.08984 1.625 8.52734 1.81641 8.85547 2.14453L10.1953 3.375H14.8984ZM15.3359 12.125V5.125C15.3359 4.90625 15.1172 4.6875 14.8984 4.6875H9.64844L7.89844 3.07422C7.81641 2.99219 7.70703 2.9375 7.59766 2.9375H4.39844C4.15234 2.9375 3.96094 3.15625 3.96094 3.375V12.125C3.96094 12.3711 4.15234 12.5625 4.39844 12.5625H14.8984C15.1172 12.5625 15.3359 12.3711 15.3359 12.125Z" fill="currentColor"/>
</svg>

<svg width="20" height="16" viewBox="0 0 20 16" fill="none" xmlns="http://www.w3.org/2000/svg"><path d="M14.898 3.375c.985 0 1.75.793 1.75 1.75v7c0 .984-.793 1.75-1.75 1.75h-10.5c-.984 0-1.75-.766-1.75-1.75v-8.75c0-.957.766-1.75 1.75-1.75h3.227c.465 0 .902.191 1.23.52l1.34 1.23h4.703zm.438 8.75v-7a.47.47 0 00-.438-.438h-5.25l-1.75-1.613a.44.44 0 00-.3-.136h-3.2a.45.45 0 00-.437.437v8.75c0 .246.191.438.437.438h10.5a.45.45 0 00.438-.438z" fill="currentColor"/></svg>
